X: 21393
T: Kerry, The
R: polka
M: 2/4
K: Gmajor
K: Gmaj
|:"G"BD ED|"G"BD ED|"C"G2 A>B|"D"AG ED|"G"BD ED|"G"BD ED|"C"G2 "D"A>B|AG "G"G2:|
|:"G"Bd B>G|"G"AG ED|"C"G2 A>B|"D"AG ED|"G"Bd B>G|"G"AG ED|"C"G2 A>B|"D"AG "G"G2:|

